packages/icons/src/dependency-ci-step.svg

<svg fill="none" viewBox="0 0 40 41" xmlns="http://www.w3.org/2000/svg"><path clip-rule="evenodd" d="m12.4648 8.43296c-.0563.04958-.0748.10162-.0748.14427v3.30577c0 .0427.0185.0947.0748.1443.0572.0504.1474.0904.2591.0904h14.5936c.1118 0 .2019-.04.2592-.0904.0563-.0496.0747-.1016.0747-.1443v-3.30577c0-.04265-.0184-.09469-.0747-.14427-.0573-.05044-.1474-.09035-.2592-.09035h-14.5936c-.1117 0-.2019.03991-.2591.09035zm-1.0748.14427c0-.73955.6587-1.23462 1.3339-1.23462h14.5936c.6753 0 1.3339.49507 1.3339 1.23462v3.30577c0 .7396-.6586 1.2347-1.3339 1.2347h-14.5936c-.6752 0-1.3339-.4951-1.3339-1.2347zm19.3172 2.82437c0-.2761.2238-.5.5-.5h4.8339c.7143 0 1.3339.5584 1.3339 1.2958v9.1522c0 .7376-.6196 1.2958-1.3339 1.2958h-3.8625l1.5141 1.1004c.2234.1624.2728.4751.1105.6985-.1624.2233-.475.2728-.6984.1105l-2.7586-2.0049c-.1296-.0942-.2062-.2447-.2061-.4048s.0769-.3105.2066-.4045l2.7586-1.9995c.2236-.1621.5362-.1122.6983.1114.162.2236.1121.5362-.1114.6983l-1.5103 1.0946h3.8592c.2067 0 .3339-.1542.3339-.2958v-9.1522c0-.1415-.1273-.2958-.3339-.2958h-4.8339c-.2762 0-.5-.2238-.5-.5zm-18.2424 7.7763c-.0563.0496-.0748.1016-.0748.1443v3.3058c0 .0426.0185.0947.0748.1442.0572.0505.1474.0904.2591.0904h14.5936c.1118 0 .2019-.0399.2592-.0904.0563-.0495.0747-.1016.0747-.1442v-3.3058c0-.0427-.0184-.0947-.0747-.1443-.0573-.0504-.1474-.0904-.2592-.0904h-14.5936c-.1117 0-.2019.04-.2591.0904zm-1.0748.1443c0-.7396.6587-1.2347 1.3339-1.2347h14.5936c.6753 0 1.3339.4951 1.3339 1.2347v3.3058c0 .7395-.6586 1.2346-1.3339 1.2346h-14.5936c-.6752 0-1.3339-.4951-1.3339-1.2346zm-8.765 2.463c0-.7373.61945-1.2958 1.33392-1.2958h4.8338c.27614 0 .5.2238.5.5 0 .2761-.22386.5-.5.5h-4.8338c-.20668 0-.33392.1542-.33392.2958v9.1522c0 .1417.12717.2958.33392.2958h3.85912l-1.51023-1.0946c-.22359-.1621-.27347-.4747-.11141-.6983s.47469-.2735.69828-.1114l2.75862 1.9995c.12966.094.20646.2444.20656.4045.00011.1601-.0765.3106-.20604.4048l-2.75862 2.0049c-.22338.1623-.53608.1128-.69842-.1106-.16235-.2233-.11287-.536.11051-.6984l1.51412-1.1004h-3.86249c-.7144 0-1.33392-.5583-1.33392-1.2958zm9.8398 8.1227c-.0563.0496-.0748.1016-.0748.1443v3.3058c0 .0426.0185.0947.0748.1443.0572.0504.1474.0903.2591.0903h14.5936c.1118 0 .2019-.0399.2592-.0903.0563-.0496.0747-.1017.0747-.1443v-3.3058c0-.0427-.0184-.0947-.0747-.1443-.0573-.0504-.1474-.0903-.2592-.0903h-14.5936c-.1117 0-.2019.0399-.2591.0903zm-1.0748.1443c0-.7396.6587-1.2346 1.3339-1.2346h14.5936c.6753 0 1.3339.495 1.3339 1.2346v3.3058c0 .7395-.6586 1.2346-1.3339 1.2346h-14.5936c-.6752 0-1.3339-.4951-1.3339-1.2346z" fill="#4f5162" fill-rule="evenodd"/></svg>

<svg viewBox="0 0 40 41" fill="none" xmlns="http://www.w3.org/2000/svg">
<path fill-rule="evenodd" clip-rule="evenodd" d="M12.4648 8.43296C12.4085 8.48254 12.39 8.53458 12.39 8.57723V11.883C12.39 11.9257 12.4085 11.9777 12.4648 12.0273C12.522 12.0777 12.6122 12.1177 12.7239 12.1177H27.3175C27.4293 12.1177 27.5194 12.0777 27.5767 12.0273C27.633 11.9777 27.6514 11.9257 27.6514 11.883V8.57723C27.6514 8.53458 27.633 8.48254 27.5767 8.43296C27.5194 8.38252 27.4293 8.34261 27.3175 8.34261H12.7239C12.6122 8.34261 12.522 8.38252 12.4648 8.43296ZM11.39 8.57723C11.39 7.83768 12.0487 7.34261 12.7239 7.34261H27.3175C27.9928 7.34261 28.6514 7.83768 28.6514 8.57723V11.883C28.6514 12.6226 27.9928 13.1177 27.3175 13.1177H12.7239C12.0487 13.1177 11.39 12.6226 11.39 11.883V8.57723ZM30.7072 11.4016C30.7072 11.1255 30.931 10.9016 31.2072 10.9016H36.0411C36.7554 10.9016 37.375 11.46 37.375 12.1974V21.3496C37.375 22.0872 36.7554 22.6454 36.0411 22.6454H32.1786L33.6927 23.7458C33.9161 23.9082 33.9655 24.2209 33.8032 24.4443C33.6408 24.6676 33.3282 24.7171 33.1048 24.5548L30.3462 22.5499C30.2166 22.4557 30.14 22.3052 30.1401 22.1451C30.1402 21.985 30.217 21.8346 30.3467 21.7406L33.1053 19.7411C33.3289 19.579 33.6415 19.6289 33.8036 19.8525C33.9656 20.0761 33.9157 20.3887 33.6922 20.5508L32.1819 21.6454H36.0411C36.2478 21.6454 36.375 21.4912 36.375 21.3496V12.1974C36.375 12.0559 36.2477 11.9016 36.0411 11.9016H31.2072C30.931 11.9016 30.7072 11.6778 30.7072 11.4016ZM12.4648 19.1779C12.4085 19.2275 12.39 19.2795 12.39 19.3222V22.628C12.39 22.6706 12.4085 22.7227 12.4648 22.7722C12.522 22.8227 12.6122 22.8626 12.7239 22.8626H27.3175C27.4293 22.8626 27.5194 22.8227 27.5767 22.7722C27.633 22.7227 27.6514 22.6706 27.6514 22.628V19.3222C27.6514 19.2795 27.633 19.2275 27.5767 19.1779C27.5194 19.1275 27.4293 19.0875 27.3175 19.0875H12.7239C12.6122 19.0875 12.522 19.1275 12.4648 19.1779ZM11.39 19.3222C11.39 18.5826 12.0487 18.0875 12.7239 18.0875H27.3175C27.9928 18.0875 28.6514 18.5826 28.6514 19.3222V22.628C28.6514 23.3675 27.9928 23.8626 27.3175 23.8626H12.7239C12.0487 23.8626 11.39 23.3675 11.39 22.628V19.3222ZM2.625 21.7852C2.625 21.0479 3.24445 20.4894 3.95892 20.4894H8.79272C9.06886 20.4894 9.29272 20.7132 9.29272 20.9894C9.29272 21.2655 9.06886 21.4894 8.79272 21.4894H3.95892C3.75224 21.4894 3.625 21.6436 3.625 21.7852V30.9374C3.625 31.0791 3.75217 31.2332 3.95892 31.2332H7.81804L6.30781 30.1386C6.08422 29.9765 6.03434 29.6639 6.1964 29.4403C6.35846 29.2167 6.67109 29.1668 6.89468 29.3289L9.6533 31.3284C9.78296 31.4224 9.85976 31.5728 9.85986 31.7329C9.85997 31.893 9.78336 32.0435 9.65382 32.1377L6.8952 34.1426C6.67182 34.3049 6.35912 34.2554 6.19678 34.032C6.03443 33.8087 6.08391 33.496 6.30729 33.3336L7.82141 32.2332H3.95892C3.24452 32.2332 2.625 31.6749 2.625 30.9374V21.7852ZM12.4648 29.9079C12.4085 29.9575 12.39 30.0095 12.39 30.0522V33.358C12.39 33.4006 12.4085 33.4527 12.4648 33.5023C12.522 33.5527 12.6122 33.5926 12.7239 33.5926H27.3175C27.4293 33.5926 27.5194 33.5527 27.5767 33.5023C27.633 33.4527 27.6514 33.4006 27.6514 33.358V30.0522C27.6514 30.0095 27.633 29.9575 27.5767 29.9079C27.5194 29.8575 27.4293 29.8176 27.3175 29.8176H12.7239C12.6122 29.8176 12.522 29.8575 12.4648 29.9079ZM11.39 30.0522C11.39 29.3126 12.0487 28.8176 12.7239 28.8176H27.3175C27.9928 28.8176 28.6514 29.3126 28.6514 30.0522V33.358C28.6514 34.0975 27.9928 34.5926 27.3175 34.5926H12.7239C12.0487 34.5926 11.39 34.0975 11.39 33.358V30.0522Z" fill="#4F5162"/>
</svg>
